public/img/general/logos/gmc.svg

<svg width="63" height="13" viewBox="0 0 63 13" fill="none" xmlns="http://www.w3.org/2000/svg">
<path fill-rule="evenodd" clip-rule="evenodd" d="M19.7988 0.0239247L19.8146 3.05545H4.03133C3.68893 3.08735 3.5649 3.401 3.47122 3.65152C3.44021 5.53277 3.40723 9.7704 3.58931 9.61556L3.90994 9.82356L15.9222 9.82821C16.7317 9.57769 16.4995 8.1523 16.545 7.91573L16.3583 7.7589L10.0705 7.72767V4.93736L9.99921 4.92407H19.8918V10.2894C19.8159 11.4915 18.7241 12.3049 17.6039 12.6504L15.7045 12.8697L2.61952 12.8664C1.60024 12.7115 0.763049 12.0224 0.295963 10.9885C-0.215984 8.22274 0.0782528 5.28158 0.140927 2.55374C0.327629 1.73838 0.856068 0.986809 1.6042 0.515666C2.32 0.139549 3.25351 0.0770865 4.094 0.0139573L19.7988 0.0239247ZM27.2464 0.0770873C28.9065 3.1318 30.6085 6.16318 32.352 9.17034L32.8508 8.54303L37.6133 0.108318H42.905L42.843 12.9016C42.5349 12.9607 40.5702 12.9322 39.4487 12.9322V3.52593L39.3867 3.46346L34.033 12.8385L33.8463 12.9322L30.6829 12.9375L25.6571 3.6482L25.4487 3.27474C25.4955 3.46147 25.4269 12.9847 25.4269 12.9847C22.8434 12.9607 22.9384 13.0704 22.0352 12.9142V0.0239247L27.224 0L27.2464 0.0770873ZM62.9593 0.178758C63.0596 1.30113 62.9428 2.55573 62.9428 3.3691L49.1387 3.40831C48.7957 3.40831 48.4533 3.62827 48.3913 3.97249C48.3293 5.8225 48.1736 7.70375 48.5153 9.3976C48.5153 9.3976 48.3708 9.84748 49.4765 9.77837L62.929 9.77438C62.991 10.7778 62.898 11.8171 62.898 12.9149L48.0245 12.9382C46.8106 12.7813 45.4021 11.9693 45.123 10.7153L44.9363 9.21021L45.0306 2.8448C45.2483 1.93507 45.7458 0.901084 46.711 0.5562C47.7071 -0.00864008 48.0317 0.279761 49.2469 0.186064L62.9593 0.178758Z" fill="white"/>
</svg>

<svg width="63" height="13" fill="none" xmlns="http://www.w3.org/2000/svg"><path fill-rule="evenodd" clip-rule="evenodd" d="M19.799.024l.016 3.031H4.03c-.342.032-.466.346-.56.597-.03 1.88-.064 6.118.118 5.964l.32.208 12.013.004c.81-.25.578-1.676.623-1.912l-.187-.157-6.288-.031v-2.79L10 4.923h9.892v5.365c-.076 1.203-1.168 2.016-2.288 2.361l-1.9.22-13.084-.004C1.6 12.711.763 12.022.296 10.99-.216 8.223.078 5.282.141 2.553A3.317 3.317 0 011.604.516C2.32.14 3.254.077 4.094.014l15.705.01zm7.447.053a377.629 377.629 0 005.106 9.093l.499-.627L37.613.108h5.292l-.062 12.794c-.308.059-2.273.03-3.394.03V3.526l-.062-.063-5.354 9.376-.187.093-3.163.005-5.026-9.289-.208-.373c.046.186-.022 9.71-.022 9.71-2.584-.024-2.489.085-3.392-.07V.023L27.224 0l.022.077zM62.96.18c.1 1.122-.016 2.377-.016 3.19l-13.804.04c-.343 0-.686.22-.748.563-.062 1.85-.217 3.732.124 5.426 0 0-.144.45.962.38l13.452-.004c.062 1.004-.031 2.043-.031 3.14l-14.873.024c-1.214-.157-2.623-.969-2.902-2.223l-.187-1.505.095-6.365c.217-.91.715-1.944 1.68-2.289.996-.565 1.32-.276 2.536-.37L62.959.18z" fill="#fff"/></svg>
